;Generated with Cura_SteamEngine 15.01
; Default start code
G28 ; Home extruder
G1 Z15 F400
M107 ; Turn off fan
G90 ; Absolute positioning
M82 ; Extruder in absolute mode
; Activate all used extruder
M104 T0 S195
G92 E0 ; Reset extruder position
; Wait for all used extruders to reach temperature
M109 T0 S195
;Layer count: 65
;LAYER:0
M107
G0 F9000 X62.835 Y59.224 Z0.200
G0 X62.710 Y59.359
;TYPE:SKIRT
G1 F1800 X62.835 Y59.224 E0.00612
G1 X62.974 Y59.091 E0.01252
G1 X63.165 Y58.900 E0.02150
G1 X63.679 Y58.446 E0.04431
G1 X64.639 Y57.712 E0.08450
G1 X65.762 Y57.031 E0.12819
G1 X67.351 Y56.348 E0.18571
G1 X74.887 Y54.168 E0.44664
G1 X76.044 Y53.884 E0.48626
G1 X77.148 Y53.740 E0.52329
G1 X78.803 Y53.673 E0.57838
G1 X81.181 Y54.000 E0.65822
G1 X83.376 Y54.781 E0.73571
G1 X84.891 Y55.625 E0.79339
G1 X86.191 Y56.570 E0.84685
G1 X87.764 Y58.134 E0.92062
G1 X89.011 Y59.969 E0.99441
G1 X89.892 Y61.911 E1.06534
G1 X90.382 Y63.855 E1.13202
G1 X90.524 Y65.082 E1.17310
G1 X90.568 Y66.518 E1.22089
G1 X90.290 Y68.742 E1.29543
G1 X89.505 Y71.081 E1.37749
G1 X88.260 Y73.234 E1.46021
G1 X86.881 Y74.784 E1.52922
G1 X86.626 Y75.010 E1.54055
G1 X87.375 Y75.719 E1.57485
G1 X88.258 Y76.824 E1.62190
G1 X89.181 Y78.283 E1.67932
G1 X89.993 Y80.241 E1.74982
G1 X90.345 Y81.716 E1.80026
G1 X90.499 Y82.760 E1.83536
G1 X90.578 Y84.474 E1.89242
G1 X90.280 Y86.786 E1.96996
G1 X89.512 Y89.056 E2.04966
G1 X88.330 Y91.131 E2.12909
G1 X86.735 Y92.969 E2.21003
G1 X84.945 Y94.357 E2.28537
G1 X83.134 Y95.329 E2.35373
G1 X81.264 Y95.942 E2.41918
G1 X80.298 Y96.132 E2.45193
G1 X79.415 Y96.255 E2.48158
G1 X77.740 Y96.327 E2.53734
G1 X75.643 Y96.048 E2.60770
G1 X67.859 Y93.799 E2.87719
G1 X66.114 Y93.191 E2.93865
G1 X64.149 Y91.948 E3.01598
G1 X63.497 Y91.393 E3.04446
G1 X63.325 Y91.240 E3.05212
G1 X63.165 Y91.093 E3.05935
G1 X62.999 Y90.933 E3.06701
G1 X62.856 Y90.790 E3.07374
G1 X62.683 Y90.613 E3.08197
G1 X62.428 Y90.337 E3.09447
G1 X62.417 Y90.323 E3.09506
G1 X62.393 Y90.298 E3.09622
G1 X62.187 Y90.054 E3.10684
G1 X62.112 Y89.962 E3.11078
G1 X61.920 Y89.735 E3.12067
G1 X61.724 Y89.461 E3.13188
G1 X61.617 Y89.318 E3.13782
G1 X61.549 Y89.216 E3.14190
G1 X61.457 Y89.087 E3.14717
G1 X61.319 Y88.870 E3.15572
G1 X61.248 Y88.762 E3.16002
G1 X61.059 Y88.447 E3.17224
G1 X61.039 Y88.411 E3.17361
G1 X60.968 Y88.294 E3.17816
G1 X60.813 Y88.002 E3.18915
G1 X60.792 Y87.961 E3.19068
G1 X60.674 Y87.738 E3.19908
G1 X60.505 Y87.377 E3.21233
G1 X60.378 Y87.085 E3.22292
G1 X60.286 Y86.860 E3.23101
G1 X60.201 Y86.641 E3.23882
G1 X60.129 Y86.443 E3.24583
G1 X60.011 Y86.103 E3.25780
G1 X59.940 Y85.861 E3.26619
G1 X59.858 Y85.600 E3.27529
G1 X59.746 Y85.123 E3.29158
G1 X59.671 Y84.785 E3.30310
G1 X59.626 Y84.530 E3.31171
G1 X59.566 Y84.184 E3.32339
G1 X59.540 Y83.956 E3.33102
G1 X59.517 Y83.790 E3.33660
G1 X59.478 Y83.336 E3.35175
G1 X59.454 Y82.919 E3.36565
G1 X59.450 Y82.546 E3.37805
G1 X59.450 Y67.326 E3.88427
G1 X59.460 Y66.985 E3.89562
G1 X59.469 Y66.821 E3.90108
G1 X59.482 Y66.607 E3.90821
G1 X59.485 Y66.577 E3.90922
G1 X59.495 Y66.387 E3.91554
G1 X59.548 Y65.978 E3.92926
G1 X59.569 Y65.799 E3.93525
G1 X59.663 Y65.256 E3.95358
G1 X59.692 Y65.123 E3.95811
G1 X59.726 Y64.960 E3.96365
G1 X59.848 Y64.440 E3.98141
G1 X59.941 Y64.133 E3.99208
G1 X59.958 Y64.075 E3.99409
G1 X59.967 Y64.046 E3.99510
G1 X60.046 Y63.779 E4.00436
G1 X60.128 Y63.559 E4.01217
G1 X60.189 Y63.387 E4.01824
G1 X60.208 Y63.331 E4.02021
G1 X60.421 Y62.805 E4.03909
G1 X60.479 Y62.681 E4.04364
G1 X60.533 Y62.559 E4.04808
G1 X60.657 Y62.302 E4.05757
G1 X60.751 Y62.114 E4.06456
G1 X60.774 Y62.071 E4.06618
G1 X60.832 Y61.954 E4.07052
G1 X61.001 Y61.653 E4.08200
G1 X61.024 Y61.615 E4.08348
G1 X61.036 Y61.593 E4.08431
G1 X61.230 Y61.264 E4.09702
G1 X61.340 Y61.096 E4.10370
G1 X61.403 Y60.996 E4.10763
G1 X61.543 Y60.794 E4.11580
G1 X61.598 Y60.713 E4.11906
G1 X61.796 Y60.437 E4.13036
G1 X61.945 Y60.246 E4.13841
G1 X62.065 Y60.090 E4.14496
G1 X62.120 Y60.025 E4.14779
G1 X62.393 Y59.701 E4.16188
G1 X62.495 Y59.591 E4.16687
G1 X62.577 Y59.498 E4.17100
G1 X62.710 Y59.359 E4.17740
G0 F9000 X62.996 Y59.639
G1 F1800 X63.120 Y59.505 E4.18347
G1 X63.268 Y59.363 E4.19029
G1 X63.439 Y59.192 E4.19833
G1 X63.933 Y58.755 E4.22027
G1 X64.865 Y58.043 E4.25928
G1 X65.945 Y57.387 E4.30131
G1 X67.486 Y56.725 E4.35709
G1 X74.990 Y54.555 E4.61690
G1 X76.118 Y54.278 E4.65553
G1 X77.182 Y54.139 E4.69122
G1 X78.784 Y54.074 E4.74455
G1 X81.086 Y54.390 E4.82183
G1 X83.211 Y55.146 E4.89685
G1 X84.675 Y55.963 E4.95261
G1 X85.931 Y56.875 E5.00424
G1 X87.455 Y58.391 E5.07573
G1 X88.661 Y60.165 E5.14708
G1 X89.513 Y62.044 E5.21570
G1 X89.988 Y63.927 E5.28029
G1 X90.124 Y65.112 E5.31996
G1 X90.167 Y66.499 E5.36612
G1 X89.898 Y68.652 E5.43828
G1 X89.139 Y70.916 E5.51770
G1 X87.935 Y72.998 E5.59769
G1 X86.597 Y74.500 E5.66460
G1 X86.034 Y75.000 E5.68964
G1 X87.079 Y75.990 E5.73752
G1 X87.931 Y77.057 E5.78293
G1 X88.824 Y78.468 E5.83847
G1 X89.611 Y80.365 E5.90678
G1 X89.952 Y81.792 E5.95558
G1 X90.100 Y82.799 E5.98943
G1 X90.177 Y84.458 E6.04467
G1 X89.889 Y86.696 E6.11972
G1 X89.145 Y88.892 E6.19684
G1 X88.002 Y90.899 E6.27366
G1 X86.459 Y92.677 E6.35196
G1 X84.727 Y94.021 E6.42487
G1 X82.976 Y94.960 E6.49096
G1 X81.163 Y95.555 E6.55442
G1 X80.232 Y95.737 E6.58597
G1 X79.379 Y95.856 E6.61462
G1 X77.758 Y95.926 E6.66859
G1 X75.725 Y95.655 E6.73680
G1 X67.981 Y93.418 E7.00490
G1 X66.289 Y92.829 E7.06449
G1 X64.387 Y91.625 E7.13936
G1 X63.760 Y91.091 E7.16675
G1 X63.593 Y90.944 E7.17415
G1 X63.440 Y90.802 E7.18109
G1 X63.279 Y90.648 E7.18850
G1 X63.141 Y90.509 E7.19502
G1 X62.974 Y90.338 E7.20297
G1 X62.728 Y90.072 E7.21502
G1 X62.716 Y90.058 E7.21563
G1 X62.693 Y90.033 E7.21676
G1 X62.495 Y89.798 E7.22698
G1 X62.439 Y89.730 E7.22991
G1 X62.236 Y89.489 E7.24039
G1 X62.056 Y89.238 E7.25066
G1 X61.943 Y89.087 E7.25694
G1 X61.874 Y88.984 E7.26106
G1 X61.789 Y88.864 E7.26595
G1 X61.683 Y88.696 E7.27256
G1 X61.587 Y88.550 E7.27837
G1 X61.404 Y88.245 E7.29020
G1 X61.377 Y88.197 E7.29203
G1 X61.317 Y88.097 E7.29591
G1 X61.167 Y87.817 E7.30648
G1 X61.094 Y87.676 E7.31176
G1 X61.032 Y87.559 E7.31616
G1 X60.870 Y87.212 E7.32890
G1 X60.746 Y86.929 E7.33918
G1 X60.658 Y86.712 E7.34696
G1 X60.576 Y86.501 E7.35449
G1 X60.506 Y86.309 E7.36129
G1 X60.392 Y85.981 E7.37284
G1 X60.348 Y85.830 E7.37807
G1 X60.341 Y85.808 E7.37884
G1 X60.326 Y85.756 E7.38064
G1 X60.244 Y85.495 E7.38974
G1 X60.136 Y85.034 E7.40549
G1 X60.064 Y84.707 E7.41662
G1 X60.020 Y84.461 E7.42493
G1 X59.963 Y84.127 E7.43620
G1 X59.943 Y83.950 E7.44213
G1 X59.915 Y83.746 E7.44898
G1 X59.877 Y83.307 E7.46363
G1 X59.854 Y82.906 E7.47699
G1 X59.850 Y82.544 E7.48903
G1 X59.850 Y67.332 E7.99499
G1 X59.860 Y67.002 E8.00597
G1 X59.868 Y66.844 E8.01123
G1 X59.880 Y66.638 E8.01809
G1 X59.885 Y66.586 E8.01983
G1 X59.894 Y66.424 E8.02523
G1 X59.939 Y66.076 E8.03690
G1 X59.965 Y65.856 E8.04426
G1 X60.056 Y65.334 E8.06189
G1 X60.081 Y65.221 E8.06574
G1 X60.117 Y65.046 E8.07168
G1 X60.235 Y64.544 E8.08883
G1 X60.331 Y64.227 E8.09985
G1 X60.341 Y64.191 E8.10109
G1 X60.349 Y64.166 E8.10196
G1 X60.425 Y63.906 E8.11097
G1 X60.512 Y63.674 E8.11921
G1 X60.549 Y63.568 E8.12295
G1 X60.582 Y63.472 E8.12633
G1 X60.788 Y62.966 E8.14450
G1 X60.836 Y62.865 E8.14822
G1 X60.896 Y62.727 E8.15322
G1 X61.016 Y62.479 E8.16238
G1 X61.107 Y62.298 E8.16912
G1 X61.113 Y62.286 E8.16957
G1 X61.186 Y62.141 E8.17497
G1 X61.348 Y61.853 E8.18596
G1 X61.358 Y61.835 E8.18664
G1 X61.382 Y61.793 E8.18825
G1 X61.570 Y61.476 E8.20051
G1 X61.669 Y61.325 E8.20652
G1 X61.737 Y61.216 E8.21079
G1 X61.871 Y61.021 E8.21866
G1 X61.926 Y60.942 E8.22186
G1 X62.116 Y60.676 E8.23273
G1 X62.260 Y60.493 E8.24048
G1 X62.292 Y60.452 E8.24221
G1 X62.302 Y60.439 E8.24275
G1 X62.377 Y60.341 E8.24686
G1 X62.417 Y60.294 E8.24891
G1 X62.430 Y60.277 E8.24962
G1 X62.693 Y59.966 E8.26317
G1 X62.782 Y59.870 E8.26752
G1 X62.871 Y59.769 E8.27200
G1 X62.996 Y59.639 E8.27800
G0 F9000 X63.265 Y59.937
G1 F1800 X63.405 Y59.786 E8.28485
G1 X63.548 Y59.649 E8.29143
G1 X63.714 Y59.483 E8.29924
G1 X64.188 Y59.064 E8.32028
G1 X65.091 Y58.374 E8.35808
G1 X66.129 Y57.744 E8.39847
G1 X67.621 Y57.102 E8.45249
G1 X75.093 Y54.941 E8.71119
G1 X76.192 Y54.672 E8.74883
G1 X77.217 Y54.538 E8.78321
G1 X78.764 Y54.475 E8.83470
G1 X80.991 Y54.781 E8.90947
G1 X83.045 Y55.512 E8.98198
G1 X84.459 Y56.301 E9.03584
G1 X85.671 Y57.181 E9.08566
G1 X87.146 Y58.647 E9.15482
G1 X88.311 Y60.362 E9.22378
G1 X89.134 Y62.176 E9.29003
G1 X89.593 Y63.999 E9.35256
G1 X89.725 Y65.141 E9.39080
G1 X89.766 Y66.480 E9.43535
G1 X89.506 Y68.563 E9.50517
G1 X88.773 Y70.750 E9.58189
G1 X87.609 Y72.763 E9.65923
G1 X86.314 Y74.217 E9.72399
G1 X85.443 Y74.990 E9.76272
G1 X86.784 Y76.261 E9.82417
G1 X87.605 Y77.289 E9.86793
G1 X88.468 Y78.653 E9.92162
G1 X89.229 Y80.489 E9.98772
G1 X89.559 Y81.868 E10.03488
G1 X89.702 Y82.837 E10.06746
G1 X89.776 Y84.441 E10.12086
G1 X89.497 Y86.605 E10.19343
G1 X88.779 Y88.727 E10.26794
G1 X87.674 Y90.666 E10.34217
G1 X86.183 Y92.385 E10.41786
G1 X84.508 Y93.684 E10.48836
G1 X82.818 Y94.591 E10.55215
G1 X81.062 Y95.167 E10.61362
G1 X80.166 Y95.343 E10.64399
G1 X79.342 Y95.457 E10.67165
G1 X77.776 Y95.525 E10.72379
G1 X75.808 Y95.263 E10.78982
G1 X68.102 Y93.036 E11.05661
G1 X66.464 Y92.466 E11.11430
G1 X64.625 Y91.302 E11.18669
G1 X64.022 Y90.789 E11.21302
G1 X63.861 Y90.647 E11.22016
G1 X63.714 Y90.510 E11.22684
G1 X63.559 Y90.362 E11.23397
G1 X63.425 Y90.228 E11.24027
G1 X63.264 Y90.062 E11.24796
G1 X63.028 Y89.807 E11.25952
G1 X63.018 Y89.795 E11.26004
G1 X62.993 Y89.768 E11.26126
G1 X62.803 Y89.543 E11.27106
G1 X62.722 Y89.443 E11.27534
G1 X62.552 Y89.244 E11.28404
G1 X62.372 Y88.992 E11.29434
G1 X62.270 Y88.856 E11.30000
G1 X62.205 Y88.759 E11.30388
G1 X62.121 Y88.640 E11.30873
G1 X62.016 Y88.474 E11.31526
G1 X61.926 Y88.337 E11.32071
G1 X61.750 Y88.043 E11.33211
G1 X61.731 Y88.009 E11.33340
G1 X61.665 Y87.900 E11.33764
G1 X61.521 Y87.631 E11.34779
G1 X61.478 Y87.547 E11.35093
G1 X61.390 Y87.381 E11.35718
G1 X61.234 Y87.047 E11.36944
G1 X61.115 Y86.774 E11.37934
G1 X61.030 Y86.565 E11.38685
G1 X60.950 Y86.360 E11.39417
G1 X60.883 Y86.175 E11.40071
G1 X60.774 Y85.859 E11.41183
G1 X60.731 Y85.713 E11.41689
G1 X60.724 Y85.692 E11.41763
G1 X60.708 Y85.635 E11.41960
G1 X60.630 Y85.389 E11.42818
G1 X60.526 Y84.945 E11.44335
G1 X60.456 Y84.629 E11.45411
G1 X60.414 Y84.392 E11.46212
G1 X60.359 Y84.070 E11.47298
G1 X60.336 Y83.871 E11.47965
G1 X60.312 Y83.702 E11.48532
G1 X60.276 Y83.279 E11.49944
G1 X60.254 Y82.892 E11.51233
G1 X60.250 Y82.541 E11.52401
G1 X60.250 Y67.338 E12.02966
G1 X60.259 Y67.019 E12.04028
G1 X60.268 Y66.867 E12.04534
G1 X60.279 Y66.669 E12.05194
G1 X60.283 Y66.625 E12.05341
G1 X60.292 Y66.461 E12.05887
G1 X60.340 Y66.098 E12.07105
G1 X60.361 Y65.914 E12.07721
G1 X60.448 Y65.411 E12.09419
G1 X60.480 Y65.265 E12.09916
G1 X60.507 Y65.133 E12.10364
G1 X60.621 Y64.648 E12.12021
G1 X60.706 Y64.368 E12.12994
G1 X60.724 Y64.307 E12.13206
G1 X60.732 Y64.282 E12.13293
G1 X60.805 Y64.032 E12.14159
G1 X60.896 Y63.789 E12.15022
G1 X60.912 Y63.744 E12.15181
G1 X60.957 Y63.612 E12.15645
G1 X61.154 Y63.127 E12.17386
G1 X61.201 Y63.028 E12.17751
G1 X61.260 Y62.894 E12.18238
G1 X61.375 Y62.655 E12.19120
G1 X61.462 Y62.481 E12.19767
G1 X61.485 Y62.438 E12.19929
G1 X61.539 Y62.329 E12.20334
G1 X61.695 Y62.052 E12.21391
G1 X61.713 Y62.022 E12.21507
G1 X61.729 Y61.993 E12.21617
G1 X61.910 Y61.687 E12.22800
G1 X61.994 Y61.559 E12.23309
G1 X62.071 Y61.436 E12.23792
G1 X62.200 Y61.249 E12.24547
G1 X62.253 Y61.172 E12.24858
G1 X62.436 Y60.916 E12.25905
G1 X62.566 Y60.752 E12.26601
G1 X62.688 Y60.592 E12.27270
G1 X62.729 Y60.544 E12.27480
G1 X62.740 Y60.530 E12.27539
G1 X62.993 Y60.231 E12.28842
G1 X63.091 Y60.125 E12.29322
G1 X63.166 Y60.040 E12.29699
G1 X63.265 Y59.937 E12.30174
G0 F9000 X63.553 Y60.215
G1 F1800 X63.691 Y60.066 E12.30850
G1 X63.828 Y59.935 E12.31480
G1 X63.988 Y59.775 E12.32233
G1 X64.442 Y59.373 E12.34250
G1 X65.316 Y58.705 E12.37909
G1 X66.313 Y58.100 E12.41787
G1 X67.756 Y57.480 E12.47011
G1 X75.197 Y55.328 E12.72774
G1 X76.266 Y55.065 E12.76436
G1 X77.251 Y54.937 E12.79739
G1 X78.745 Y54.876 E12.84713
G1 X80.895 Y55.172 E12.91931
G1 X82.879 Y55.878 E12.98935
G1 X84.244 Y56.638 E13.04131
G1 X85.411 Y57.486 E13.08929
G1 X86.836 Y58.904 E13.15616
G1 X87.960 Y60.558 E13.22267
G1 X88.754 Y62.309 E13.28662
G1 X89.199 Y64.071 E13.34706
G1 X89.326 Y65.170 E13.38386
G1 X89.365 Y66.461 E13.42682
G1 X89.114 Y68.474 E13.49429
G1 X88.406 Y70.585 E13.56834
G1 X87.283 Y72.527 E13.64296
G1 X86.031 Y73.933 E13.70557
G1 X85.120 Y74.742 E13.74610
G1 X84.742 Y74.995 E13.76122
G1 X85.176 Y75.288 E13.77864
G1 X86.489 Y76.532 E13.83880
G1 X87.279 Y77.521 E13.88090
G1 X88.112 Y78.838 E13.93273
G1 X88.848 Y80.612 E13.99661
G1 X89.166 Y81.943 E14.04213
G1 X89.303 Y82.875 E14.07346
G1 X89.374 Y84.425 E14.12506
G1 X89.105 Y86.515 E14.19515
G1 X88.412 Y88.562 E14.26703
G1 X87.346 Y90.434 E14.33868
G1 X85.906 Y92.093 E14.41175
G1 X84.289 Y93.348 E14.47983
G1 X82.660 Y94.222 E14.54131
G1 X80.960 Y94.779 E14.60081
G1 X80.100 Y94.948 E14.62996
G1 X79.306 Y95.058 E14.65662
G1 X77.793 Y95.124 E14.70699
G1 X75.890 Y94.870 E14.77085
G1 X68.223 Y92.655 E15.03628
G1 X66.639 Y92.104 E15.09206
G1 X64.862 Y90.979 E15.16202
G1 X64.284 Y90.487 E15.18726
G1 X64.130 Y90.350 E15.19412
G1 X63.988 Y90.219 E15.20054
G1 X63.839 Y90.076 E15.20741
G1 X63.710 Y89.947 E15.21348
G1 X63.554 Y89.787 E15.22091
G1 X63.328 Y89.542 E15.23200
G1 X63.310 Y89.521 E15.23292
G1 X63.293 Y89.503 E15.23374
G1 X63.110 Y89.287 E15.24316
G1 X63.031 Y89.190 E15.24732
G1 X62.868 Y88.998 E15.25570
G1 X62.696 Y88.757 E15.26554
G1 X62.597 Y88.625 E15.27103
G1 X62.533 Y88.529 E15.27487
G1 X62.453 Y88.417 E15.27945
G1 X62.377 Y88.296 E15.28420
G1 X62.265 Y88.125 E15.29100
G1 X62.096 Y87.842 E15.30196
G1 X62.084 Y87.821 E15.30277
G1 X62.013 Y87.703 E15.30735
G1 X61.875 Y87.445 E15.31708
G1 X61.831 Y87.359 E15.32029
G1 X61.748 Y87.203 E15.32617
G1 X61.599 Y86.882 E15.33794
G1 X61.483 Y86.619 E15.34750
G1 X61.402 Y86.417 E15.35474
G1 X61.325 Y86.219 E15.36180
G1 X61.260 Y86.041 E15.36811
G1 X61.155 Y85.737 E15.37880
G1 X61.091 Y85.523 E15.38623
G1 X61.016 Y85.283 E15.39460
G1 X60.916 Y84.856 E15.40918
G1 X60.849 Y84.551 E15.41957
G1 X60.808 Y84.324 E15.42724
G1 X60.755 Y84.014 E15.43770
G1 X60.734 Y83.832 E15.44379
G1 X60.710 Y83.658 E15.44964
G1 X60.675 Y83.250 E15.46326
G1 X60.654 Y82.878 E15.47565
G1 X60.650 Y82.539 E15.48692
G1 X60.650 Y67.343 E15.99235
G1 X60.659 Y67.036 E16.00256
G1 X60.667 Y66.890 E16.00742
G1 X60.678 Y66.700 E16.01375
G1 X60.682 Y66.653 E16.01532
G1 X60.691 Y66.498 E16.02049
G1 X60.737 Y66.141 E16.03246
G1 X60.757 Y65.971 E16.03815
G1 X60.841 Y65.489 E16.05442
G1 X60.870 Y65.356 E16.05895
G1 X60.898 Y65.219 E16.06360
G1 X61.008 Y64.752 E16.07956
G1 X61.077 Y64.526 E16.08742
G1 X61.076 Y64.526 E16.08745
G1 X61.107 Y64.423 E16.09103
G1 X61.117 Y64.389 E16.09221
G1 X61.185 Y64.159 E16.10019
G1 X61.256 Y63.970 E16.10690
G1 X61.286 Y63.884 E16.10993
G1 X61.332 Y63.752 E16.11458
G1 X61.521 Y63.287 E16.13128
G1 X61.569 Y63.185 E16.13502
G1 X61.623 Y63.061 E16.13952
G1 X61.734 Y62.832 E16.14799
G1 X61.818 Y62.665 E16.15420
G1 X61.827 Y62.649 E16.15482
G1 X61.893 Y62.516 E16.15975
G1 X62.042 Y62.251 E16.16987
G1 X62.067 Y62.208 E16.17152
G1 X62.075 Y62.193 E16.17208
G1 X62.249 Y61.899 E16.18345
G1 X62.348 Y61.747 E16.18948
G1 X62.405 Y61.656 E16.19305
G1 X62.520 Y61.489 E16.19980
G1 X62.581 Y61.402 E16.20333
G1 X62.756 Y61.156 E16.21337
G1 X62.867 Y61.015 E16.21934
